source/img/icons/icon-user.svg

<svg width="38" height="38" viewBox="0 0 38 38" fill="none" xmlns="http://www.w3.org/2000/svg">
<path d="M31.8584 28.3367C31.1584 26.6786 30.1425 25.1724 28.8674 23.9021C27.5962 22.6282 26.0903 21.6125 24.4328 20.9111C24.418 20.9037 24.4032 20.9 24.3883 20.8926C26.7002 19.2227 28.2032 16.5025 28.2032 13.4336C28.2032 8.34961 24.084 4.23047 19 4.23047C13.916 4.23047 9.79691 8.34961 9.79691 13.4336C9.79691 16.5025 11.2998 19.2227 13.6117 20.8963C13.5969 20.9037 13.5821 20.9074 13.5672 20.9148C11.9047 21.6162 10.4129 22.6219 9.13265 23.9059C7.85872 25.1771 6.84302 26.683 6.14163 28.3404C5.45259 29.963 5.08098 31.7027 5.04691 33.4652C5.04592 33.5048 5.05286 33.5442 5.06734 33.5811C5.08181 33.618 5.10352 33.6516 5.13119 33.68C5.15886 33.7083 5.19192 33.7309 5.22843 33.7462C5.26494 33.7616 5.30416 33.7695 5.34378 33.7695H7.57034C7.73363 33.7695 7.86351 33.6396 7.86722 33.4801C7.94144 30.6152 9.09183 27.9322 11.1254 25.8986C13.2295 23.7945 16.0239 22.6367 19 22.6367C21.9762 22.6367 24.7705 23.7945 26.8746 25.8986C28.9082 27.9322 30.0586 30.6152 30.1328 33.4801C30.1366 33.6434 30.2664 33.7695 30.4297 33.7695H32.6563C32.6959 33.7695 32.7351 33.7616 32.7716 33.7462C32.8081 33.7309 32.8412 33.7083 32.8689 33.68C32.8965 33.6516 32.9182 33.618 32.9327 33.5811C32.9472 33.5442 32.9541 33.5048 32.9532 33.4652C32.916 31.6914 32.5487 29.9658 31.8584 28.3367ZM19 19.8164C17.2967 19.8164 15.6936 19.1521 14.4875 17.9461C13.2815 16.74 12.6172 15.1369 12.6172 13.4336C12.6172 11.7303 13.2815 10.1271 14.4875 8.92109C15.6936 7.71504 17.2967 7.05078 19 7.05078C20.7034 7.05078 22.3065 7.71504 23.5125 8.92109C24.7186 10.1271 25.3828 11.7303 25.3828 13.4336C25.3828 15.1369 24.7186 16.74 23.5125 17.9461C22.3065 19.1521 20.7034 19.8164 19 19.8164Z" fill="#FE724C"/>
</svg>

<svg xmlns="http://www.w3.org/2000/svg" fill="none" viewBox="0 0 38 38">
  <path fill="#FE724C" d="M31.858 28.337a13.88 13.88 0 0 0-2.99-4.435 13.939 13.939 0 0 0-4.435-2.99c-.015-.008-.03-.012-.045-.02A9.202 9.202 0 0 0 19 4.23a9.202 9.202 0 0 0-9.203 9.204 9.196 9.196 0 0 0 3.815 7.462c-.015.008-.03.011-.045.019a13.819 13.819 0 0 0-4.434 2.99 13.939 13.939 0 0 0-2.991 4.435 13.793 13.793 0 0 0-1.095 5.125.297.297 0 0 0 .297.304H7.57c.164 0 .294-.13.297-.289a11.064 11.064 0 0 1 3.258-7.581A11.06 11.06 0 0 1 19 22.637a11.06 11.06 0 0 1 7.875 3.262 11.063 11.063 0 0 1 3.258 7.581c.004.163.133.29.297.29h2.226a.297.297 0 0 0 .297-.305 13.83 13.83 0 0 0-1.095-5.128ZM19 19.817a6.342 6.342 0 0 1-4.512-1.87 6.342 6.342 0 0 1-1.87-4.513c0-1.704.663-3.307 1.87-4.513A6.342 6.342 0 0 1 19 7.051a6.34 6.34 0 0 1 4.512 1.87 6.341 6.341 0 0 1 1.87 4.513 6.341 6.341 0 0 1-1.87 4.512A6.341 6.341 0 0 1 19 19.816Z"/>
</svg>
